icons/drag-move-2-line.svg

<svg viewBox="0 0 24 24" fill="currentColor" xmlns="http://www.w3.org/2000/svg"><path d="M11 11V5.82843L9.17157 7.65685L7.75736 6.24264L12 2L16.2426 6.24264L14.8284 7.65685L13 5.82843V11H18.1716L16.3431 9.17157L17.7574 7.75736L22 12L17.7574 16.2426L16.3431 14.8284L18.1716 13H13V18.1716L14.8284 16.3431L16.2426 17.7574L12 22L7.75736 17.7574L9.17157 16.3431L11 18.1716V13H5.82843L7.65685 14.8284L6.24264 16.2426L2 12L6.24264 7.75736L7.65685 9.17157L5.82843 11H11Z"/></svg>

<svg xmlns="http://www.w3.org/2000/svg" viewBox="0 0 24 24">
    <g>
        <path fill="none" d="M0 0h24v24H0z"/>
        <path d="M11 11V5.828L9.172 7.657 7.757 6.243 12 2l4.243 4.243-1.415 1.414L13 5.828V11h5.172l-1.829-1.828 1.414-1.415L22 12l-4.243 4.243-1.414-1.415L18.172 13H13v5.172l1.828-1.829 1.415 1.414L12 22l-4.243-4.243 1.415-1.414L11 18.172V13H5.828l1.829 1.828-1.414 1.415L2 12l4.243-4.243 1.414 1.415L5.828 11z"/>
    </g>
</svg>
